public/img/anti-feature-3.svg

<svg width="88" height="88" viewBox="0 0 88 88" fill="none" xmlns="http://www.w3.org/2000/svg">
<path d="M62.8216 23.3483C63.2701 22.7678 63.1631 21.9333 62.5826 21.4845C62.0018 21.036 61.1675 21.143 60.7187 21.7236C60.2702 22.3044 60.377 23.1386 60.9578 23.5874C61.5386 24.0362 62.3728 23.9291 62.8216 23.3483Z" fill="black"/>
<path d="M63.31 67.4251C62.3255 68.0906 62.0671 69.4285 62.7327 70.413C63.3985 71.3974 64.7361 71.6558 65.7209 70.9902C66.7053 70.3244 66.9637 68.9868 66.2981 68.0023C65.6323 67.0179 64.2944 66.7595 63.31 67.4251Z" fill="black"/>
<path d="M40.439 19.5359C41.087 19.5359 41.6123 19.0106 41.6123 18.3625C41.6123 17.7145 41.087 17.1892 40.439 17.1892C39.7909 17.1892 39.2656 17.7145 39.2656 18.3625C39.2656 19.0106 39.7909 19.5359 40.439 19.5359Z" fill="black"/>
<path d="M11.9174 25.7626C12.4501 26.0468 13.0324 26.1911 13.6202 26.1911C13.9719 26.1911 14.3271 26.1395 14.6744 26.0342C15.6002 25.7535 16.3611 25.1301 16.8172 24.2777C17.2722 23.4253 17.3696 22.4455 17.0889 21.521C16.8082 20.5964 16.1848 19.8355 15.3324 19.3793C14.4788 18.9232 13.5002 18.8258 12.5757 19.1065C11.6511 19.3873 10.8902 20.0106 10.434 20.863C9.97789 21.7154 9.8805 22.6952 10.1612 23.6198C10.4417 24.5455 11.065 25.3064 11.9174 25.7626ZM12.5029 21.9698C12.6634 21.6706 12.9303 21.4506 13.2556 21.3523C13.377 21.3156 13.502 21.2971 13.6258 21.2971C13.832 21.2971 14.037 21.3476 14.2251 21.4485C14.5243 21.609 14.7443 21.8759 14.8425 22.2012C14.9408 22.5265 14.9068 22.8703 14.7475 23.1707C14.587 23.4699 14.3189 23.6899 13.9936 23.7881C13.6683 23.8855 13.3257 23.8535 13.0242 23.6931C12.725 23.5326 12.505 23.2645 12.4067 22.9392C12.3084 22.6139 12.3424 22.2698 12.5029 21.9698Z" fill="black"/>
<path d="M78.8979 41.0912C74.5883 35.7663 69.2778 31.5725 63.3694 28.6978L70.8081 18.9903C71.2011 18.4769 71.1049 17.7424 70.5939 17.3482L59.4508 8.74062C59.2044 8.54937 58.8929 8.46342 58.5822 8.50566C58.2728 8.54585 57.992 8.70747 57.802 8.95475L54.304 13.5202C54.2776 13.5481 54.2427 13.563 54.2189 13.5941C54.1943 13.6261 54.1884 13.6648 54.1676 13.6982L46.0548 24.2876C45.3723 24.2559 44.6888 24.2292 44.0015 24.2292C42.2084 24.2292 40.4305 24.3454 38.6725 24.5583L33.0795 16.5233C34.0376 14.8493 33.9915 12.7364 32.8915 11.1081C31.3046 8.76379 28.1075 8.14603 25.7679 9.73297C24.6324 10.4994 23.8636 11.6637 23.6034 13.0089C23.3432 14.3541 23.6228 15.7211 24.3907 16.8566C25.3508 18.2751 26.9562 19.1058 28.6405 19.1058H28.6772L32.6266 25.7328C23.5204 28.1587 15.2836 33.4572 9.10511 41.0909C8.75663 41.5206 8.75663 42.1369 9.10511 42.5666C13.0481 47.4386 17.8338 51.3537 23.1432 54.1882L12.4166 68.1875C12.0235 68.7009 12.1197 69.4354 12.6307 69.8296L23.7738 78.4372C23.98 78.5977 24.2332 78.6824 24.491 78.6824C24.5415 78.6824 24.5919 78.6789 24.6424 78.6722C24.9519 78.632 25.2326 78.4704 25.4227 78.2231L39.9764 59.2292C41.309 59.3506 42.6495 59.4292 44.0012 59.4292C45.7642 59.4292 47.5127 59.2972 49.2481 59.0904C50.9309 61.9551 52.7431 63.3933 54.0224 64.1005C53.4536 65.1559 53.4612 66.4789 54.1784 67.5396C54.8202 68.4882 55.871 69.0004 56.9387 69.0004C57.4661 69.0004 57.9959 68.8675 58.4851 68.6085L58.5887 72.4541C58.599 72.8413 58.8008 73.1989 59.1272 73.4086L68.318 79.3178C68.5116 79.4427 68.7327 79.5046 68.9527 79.5046C69.1818 79.5046 69.4121 79.4372 69.6104 79.3028L71.987 77.6954C72.3754 77.4328 72.5701 76.9632 72.4821 76.5027L70.4229 65.7731C70.3472 65.3812 70.078 65.0536 69.7069 64.9057L66.1051 63.4611C67.4647 62.3954 67.8005 60.4459 66.8182 58.9921C66.2107 58.0928 65.2353 57.5965 64.2254 57.5463C64.1682 56.8488 63.9848 55.9268 63.5698 54.84C65.2286 54.0216 66.8525 53.1184 68.4145 52.0894C72.3654 49.4861 75.8921 46.2823 78.8976 42.5675C79.2461 42.1363 79.2461 41.5209 78.8979 41.0912ZM52.8141 19.3247L54.8686 20.9119C55.0819 21.0768 55.335 21.1571 55.5847 21.1571C55.9364 21.1571 56.2837 21.0002 56.5139 20.701C56.9105 20.1877 56.8164 19.4508 56.303 19.0557L54.2409 17.4626L55.3808 15.9748L57.2153 17.3919C57.4286 17.5568 57.6817 17.6371 57.9313 17.6371C58.283 17.6371 58.6303 17.4802 58.8606 17.181C59.2572 16.6677 59.163 15.9308 58.6497 15.5357L56.8076 14.1124L58.9489 11.3178L68.2347 18.4907L61.1741 27.7037C57.2596 26.0543 53.1157 24.969 48.8491 24.4994L52.8141 19.3247ZM57.4544 28.7993C60.5807 32.0354 62.4006 36.1999 62.6754 40.6559H55.6328C55.042 34.7352 50.0324 30.0959 43.959 30.0959C37.8855 30.0959 32.876 34.7352 32.2852 40.6559H25.2423C25.5165 36.2189 27.3255 32.0688 30.431 28.8363C34.7559 27.3538 39.3293 26.5759 44.0015 26.5759C48.6318 26.5759 53.1641 27.3429 57.4544 28.7993ZM53.3456 41.8292C53.3456 47.0051 49.1348 51.2159 43.959 51.2159C38.7831 51.2159 34.5723 47.0051 34.5723 41.8292C34.5723 36.6533 38.7831 32.4425 43.959 32.4425C49.1348 32.4425 53.3456 36.6536 53.3456 41.8292ZM30.3181 17.2752C30.0694 16.858 29.595 16.638 29.1116 16.7193C28.0322 16.8991 26.9436 16.4421 26.334 15.5424C25.9181 14.9258 25.7667 14.1846 25.9078 13.4548C26.0489 12.725 26.4657 12.0934 27.0823 11.6766C28.3531 10.8183 30.0867 11.1518 30.9485 12.4225C31.6372 13.4425 31.558 14.8185 30.7549 15.7695C30.4123 16.1752 30.3859 16.7606 30.6895 17.196L36.0886 24.9517C35.731 25.0165 35.3763 25.0925 35.0211 25.1661L30.3181 17.2752ZM11.5401 41.8292C15.623 36.9995 20.5909 33.2017 26.0891 30.6025C24.1886 33.6132 23.0939 37.0514 22.8959 40.6559H15.799C15.1504 40.6559 14.6256 41.1806 14.6256 41.8292C14.6256 42.4778 15.1504 43.0025 15.799 43.0025H22.8956C23.0936 46.607 24.1883 50.0455 26.0888 53.056C20.5909 50.4567 15.623 46.6589 11.5401 41.8292ZM24.276 75.8606L14.9903 68.6877L17.8453 64.9618L20.6495 67.1283C20.8628 67.2932 21.1159 67.3736 21.3656 67.3736C21.7173 67.3736 22.0646 67.2166 22.2948 66.9174C22.6914 66.4053 22.5973 65.6672 22.0839 65.2721L19.272 63.0997L20.7003 61.2358L22.5905 62.6961C22.8038 62.8609 23.0569 62.9413 23.3066 62.9413C23.6583 62.9413 24.0056 62.7844 24.2358 62.4852C24.6324 61.9718 24.5383 61.235 24.0249 60.8398L22.1271 59.3738L25.2804 55.2589C29.075 57.0309 33.1056 58.2594 37.2716 58.9003L24.276 75.8606ZM30.4313 54.8224C27.3258 51.5896 25.5165 47.4398 25.2426 43.0028H32.2855C32.8763 48.9235 37.8858 53.5628 43.9593 53.5628C50.0327 53.5628 55.0423 48.9235 55.6331 43.0028H62.6757C62.4014 47.4436 60.5916 51.5957 57.4822 54.8268C53.16 56.2979 48.6209 57.0828 44.0015 57.0828C39.3293 57.0825 34.7559 56.3046 30.4313 54.8224ZM70.0313 76.1847L68.9372 76.9248L60.9186 71.7697L60.7928 67.0808L63.7857 65.0574L68.2394 66.8441L70.0313 76.1847ZM64.6117 61.6659L57.4811 66.4877C57.0352 66.7878 56.4245 66.6722 56.122 66.2243C55.8196 65.7775 55.9375 65.1677 56.3855 64.8653L63.5161 60.0446C63.6801 59.9334 63.869 59.8762 64.0626 59.8762C64.1245 59.8762 64.1875 59.8821 64.2494 59.8944C64.5061 59.9437 64.7285 60.0904 64.8739 60.3057C65.1767 60.7539 65.0584 61.3634 64.6117 61.6659ZM61.9022 58.3031L55.8698 62.3813C55.2432 62.156 53.5293 61.3282 51.779 58.7132C54.096 58.2993 56.372 57.7026 58.5928 56.9256C58.5931 56.9253 58.5937 56.9253 58.5943 56.925C59.5538 56.5892 60.5012 56.2196 61.4375 55.8174C61.8767 57.0221 61.9183 57.8957 61.9022 58.3031ZM67.1244 50.1297C65.4113 51.2587 63.6302 52.2537 61.7957 53.1146C63.7176 50.0906 64.8232 46.6311 65.0224 43.0025H72.1193C72.7678 43.0025 73.2926 42.4778 73.2926 41.8292C73.2926 41.1806 72.7678 40.6559 72.1193 40.6559H65.0224C64.8235 37.0271 63.7179 33.5689 61.7969 30.5458C67.3418 33.1462 72.351 36.9649 76.4632 41.8292C73.7461 45.0444 70.6077 47.8334 67.1244 50.1297Z" fill="black"/>
<path d="M43.958 34.7893C42.9554 34.7893 41.9689 35.0093 41.0258 35.4434C40.5022 35.684 40.2306 36.2695 40.3863 36.8253C40.4218 36.9515 40.438 37.05 40.438 37.136C40.438 37.7834 39.912 38.3093 39.2646 38.3093C39.1787 38.3093 39.0801 38.2932 38.954 38.2577C38.3949 38.1007 37.8115 38.3744 37.5721 38.8972C37.138 39.8402 36.918 40.8267 36.918 41.8293C36.918 45.7113 40.076 48.8693 43.958 48.8693C47.8399 48.8693 50.998 45.7113 50.998 41.8293C50.998 37.9473 47.8402 34.7893 43.958 34.7893ZM43.958 46.5226C41.3696 46.5226 39.2646 44.4177 39.2646 41.8293C39.2646 41.4339 39.3174 41.0408 39.4216 40.6525C41.2376 40.5724 42.701 39.1089 42.7811 37.2929C43.1695 37.1888 43.5626 37.136 43.958 37.136C46.5463 37.136 48.6513 39.2409 48.6513 41.8293C48.6513 44.4177 46.5466 46.5226 43.958 46.5226Z" fill="black"/>
</svg>

<svg width="88" height="88" fill="none" xmlns="http://www.w3.org/2000/svg"><path d="M62.822 23.348a1.329 1.329 0 10-2.104-1.624 1.329 1.329 0 002.104 1.624zm.488 44.077a2.152 2.152 0 102.41 3.565 2.152 2.152 0 00-2.41-3.565zM40.439 19.536a1.173 1.173 0 100-2.347 1.173 1.173 0 000 2.347zm-28.522 6.227a3.61 3.61 0 002.757.271 3.597 3.597 0 002.143-1.756 3.599 3.599 0 00.272-2.757 3.599 3.599 0 00-1.757-2.142 3.595 3.595 0 00-2.756-.273 3.6 3.6 0 00-2.142 1.757 3.594 3.594 0 00-.273 2.757 3.6 3.6 0 001.756 2.143zm.586-3.793a1.265 1.265 0 011.123-.673 1.269 1.269 0 011.216.904 1.27 1.27 0 01-.848 1.587 1.27 1.27 0 01-1.491-1.818z" fill="#000"/><path d="M78.898 41.091c-4.31-5.325-9.62-9.518-15.529-12.393l7.44-9.708a1.173 1.173 0 00-.215-1.642L59.45 8.741a1.175 1.175 0 00-1.649.214l-3.498 4.565c-.026.028-.061.043-.085.074-.025.032-.03.07-.051.104l-8.113 10.59a44.202 44.202 0 00-2.053-.059c-1.794 0-3.572.116-5.33.33l-5.592-8.036a5.14 5.14 0 00-.188-5.415c-1.587-2.344-4.785-2.962-7.124-1.375a5.094 5.094 0 00-2.165 3.276 5.097 5.097 0 00.788 3.848 5.138 5.138 0 004.25 2.249h.036l3.95 6.627C23.52 28.159 15.284 33.457 9.105 41.09a1.172 1.172 0 000 1.476 45.81 45.81 0 0014.038 11.621l-10.726 14a1.173 1.173 0 00.214 1.642l11.143 8.607a1.168 1.168 0 00.868.235c.31-.04.59-.202.78-.449L39.977 59.23c1.333.122 2.674.2 4.025.2 1.763 0 3.512-.132 5.247-.339 1.683 2.865 3.495 4.303 4.774 5.01a3.316 3.316 0 00.156 3.44 3.305 3.305 0 004.307 1.069l.104 3.845c.01.387.212.745.538.955l9.191 5.909a1.17 1.17 0 001.292-.015l2.377-1.608c.388-.262.583-.732.495-1.192l-2.06-10.73a1.172 1.172 0 00-.715-.867l-3.602-1.445a3.32 3.32 0 00.713-4.469 3.308 3.308 0 00-2.593-1.446c-.057-.697-.24-1.62-.655-2.706a44.842 44.842 0 004.845-2.75 46.114 46.114 0 0010.483-9.523 1.173 1.173 0 000-1.476zM52.814 19.325l2.055 1.587a1.17 1.17 0 001.645-.211 1.172 1.172 0 00-.211-1.645l-2.062-1.593 1.14-1.488 1.834 1.417a1.17 1.17 0 001.646-.211 1.172 1.172 0 00-.211-1.645l-1.842-1.424 2.14-2.794 9.287 7.173-7.06 9.213a44.164 44.164 0 00-12.326-3.205l3.965-5.174zm4.64 9.474a18.62 18.62 0 015.221 11.857h-7.042c-.591-5.92-5.6-10.56-11.674-10.56s-11.083 4.64-11.674 10.56h-7.043a18.63 18.63 0 015.189-11.82 41.806 41.806 0 0113.57-2.26c4.63 0 9.163.767 13.453 2.223zm-4.108 13.03c0 5.176-4.211 9.387-9.387 9.387s-9.387-4.21-9.387-9.387c0-5.176 4.211-9.386 9.387-9.386s9.387 4.21 9.387 9.386zM30.318 17.275a1.17 1.17 0 00-1.206-.556 2.797 2.797 0 01-2.778-1.177 2.769 2.769 0 01-.426-2.087 2.766 2.766 0 011.174-1.778 2.79 2.79 0 013.866.745 2.789 2.789 0 01-.193 3.348 1.172 1.172 0 00-.066 1.426l5.4 7.756c-.358.064-.713.14-1.068.214l-4.703-7.89zM11.54 41.83c4.083-4.83 9.05-8.627 14.55-11.227a20.916 20.916 0 00-3.194 10.054h-7.097a1.173 1.173 0 100 2.346h7.097a20.915 20.915 0 003.193 10.054c-5.498-2.6-10.466-6.397-14.549-11.227zm12.736 34.032l-9.286-7.173 2.855-3.726 2.805 2.166a1.17 1.17 0 001.645-.21 1.172 1.172 0 00-.211-1.646L19.272 63.1l1.428-1.864 1.89 1.46a1.17 1.17 0 001.646-.21 1.172 1.172 0 00-.211-1.646l-1.898-1.466 3.153-4.115c3.795 1.772 7.826 3 11.992 3.641L24.276 75.86zm6.155-21.039a18.629 18.629 0 01-5.188-11.82h7.043c.59 5.921 5.6 10.56 11.673 10.56 6.074 0 11.083-4.639 11.674-10.56h7.043a18.615 18.615 0 01-5.194 11.825 41.797 41.797 0 01-13.48 2.256c-4.673 0-9.246-.778-13.57-2.26zm39.6 21.363l-1.094.74-8.018-5.155-.126-4.69 2.993-2.023 4.453 1.787 1.792 9.34zm-5.42-14.52l-7.13 4.823a.98.98 0 01-1.096-1.622l7.131-4.821a.97.97 0 01.733-.15.97.97 0 01.625.41.98.98 0 01-.262 1.36zm-2.709-3.362l-6.032 4.078c-.627-.225-2.34-1.053-4.091-3.668a44.107 44.107 0 006.814-1.787l.001-.001c.96-.336 1.907-.705 2.843-1.108.44 1.205.481 2.079.465 2.486zm5.222-8.173a42.46 42.46 0 01-5.328 2.985 20.92 20.92 0 003.226-10.113h7.097a1.173 1.173 0 100-2.346h-7.097a20.914 20.914 0 00-3.225-10.11c5.545 2.6 10.554 6.419 14.666 11.283a43.74 43.74 0 01-9.339 8.3z" fill="#000"/><path d="M43.958 34.79c-1.003 0-1.99.22-2.932.653a1.174 1.174 0 00-.64 1.382c.036.127.052.225.052.311 0 .647-.526 1.173-1.173 1.173-.086 0-.185-.016-.311-.051a1.17 1.17 0 00-1.382.64 6.97 6.97 0 00-.654 2.931 7.048 7.048 0 007.04 7.04 7.048 7.048 0 007.04-7.04 7.048 7.048 0 00-7.04-7.04zm0 11.733a4.698 4.698 0 01-4.693-4.694c0-.395.052-.788.157-1.176a3.525 3.525 0 003.36-3.36 4.533 4.533 0 011.176-.157 4.698 4.698 0 014.693 4.693 4.698 4.698 0 01-4.693 4.694z" fill="#000"/></svg>
